X:1120
M:C
L:1/8
Q:1/4=120
K:D
c>d| e<cB>c  A2 d>e|f<dc>d B3  c | d>e f<b       f<dc>d|!B4   z2
             F<AA<d|d>ef2  G<BB<e|He6
e>f|!g<ef<^d e<Be>f|gfed   dc`B>A| d<f`a>b       a>fe>f| d6   |]

